packages/tokens/icons/heart/size16Px.svg

<svg viewBox="0 0 16 16" fill="none" xmlns="http://www.w3.org/2000/svg" width="1em" height="1em"><path d="M8.76832 3.47973L8.7684 3.47965C10.143 2.10753 12.2853 2.18484 13.5713 3.66102C14.8744 5.15686 14.7955 7.51091 13.4019 8.9014L13.4017 8.90162L13.3872 8.91613L13.387 8.91629L8 14.2935L2.61316 8.91629L2.61301 8.91614L2.59848 8.90162L2.59823 8.90138C1.20452 7.51089 1.12554 5.15686 2.42869 3.66102C3.71472 2.18484 5.85699 2.10753 7.23158 3.47965L7.23166 3.47973L7.64684 3.89397L7.99999 4.24633L8.35314 3.89397L8.76832 3.47973Z" stroke="currentColor"/></svg>

<svg xmlns="http://www.w3.org/2000/svg" fill="none" viewBox="0 0 16 16" width="1em" height="1em"><path stroke="currentColor" d="M8.768 3.48c1.375-1.372 3.517-1.295 4.803.181 1.303 1.496 1.225 3.85-.17 5.24l-.014.015L8 14.293 2.613 8.916l-.015-.014C1.205 7.51 1.126 5.156 2.428 3.66c1.287-1.476 3.429-1.553 4.804-.181l.415.414.353.352.353-.352.415-.414Z"/></svg>
